source/OpenHTMLLinks.popclipext/link-box.svg

<svg height="184" viewBox="0 0 184 184" width="184" xmlns="http://www.w3.org/2000/svg"><path d="m147 0c20.434536 0 37 16.5654643 37 37v110c0 20.434536-16.565464 37-37 37h-110c-20.4345357 0-37-16.565464-37-37v-110c0-20.4345357 16.5654643-37 37-37zm-51.4763432 60.9458521-11.1997293 11.3635083c4.4925655.6313275 8.2574281 1.6414128 11.2945879 3.0302559 3.0372893 1.388843 5.6315816 3.1880555 7.7828756 5.3976373 4.23948 4.2297524 7.071113 8.8855831 8.494899 13.967492 1.423656 5.0820382 1.439466 10.1482384.047429 15.1986004-1.392037 5.050491-4.176176 9.659001-8.352416 13.82553l-24.2977969 24.242145c-4.2394796 4.229726-8.8902075 7.039024-13.9521837 8.427893-5.0621057 1.388869-10.1399565 1.388869-15.2335522 0-5.0937253-1.388869-9.7603277-4.198167-13.9998073-8.427893-4.2394796-4.292911-7.0710476-8.980321-8.4947041-14.06223-1.4236565-5.082038-1.4394663-10.148238-.0474293-15.1986 1.3920369-5.050492 4.2077952-9.659002 8.4472748-13.825531l12.8132973-12.7838982c-1.2023198-2.7778154-1.9616421-5.6502717-2.277967-8.6173691-.316325-2.9670973-.316325-5.776395 0-8.4278932l-20.7860848 20.7381989c-6.1376882 6.0606416-10.2189341 12.7682536-12.2437375 20.1228386-2.0248164 7.354714-2.0248164 14.709428 0 22.064142 2.0248034 7.354662 6.1377336 14.093809 12.3387905 20.217441 6.1376882 6.123645 12.8923461 10.211339 20.2639737 12.263082 7.3714979 2.051731 14.7430607 2.051731 22.1146883 0 7.3716275-2.051743 14.0946659-6.107871 20.1691151-12.168383l25.4366831-25.473175c6.074449-6.060512 10.139956-12.752287 12.196522-20.075324 2.056436-7.323167 2.056436-14.6778812 0-22.0641421-2.056566-7.386261-6.153692-14.1411944-12.291381-20.2648002-2.088055-2.0832646-4.571614-3.914024-7.450676-5.4922783s-6.4699526-2.9040034-10.7726712-3.9772473zm20.2639732-47.3951421c-7.371627 2.0517176-14.094665 6.1078323-20.1691146 12.1683442l-25.4366831 25.4731556c-6.0744492 6.0605118-10.1398917 12.7523513-12.1963276 20.0755183-2.056436 7.3230377-2.056436 14.677687 0 22.0639479 2.0564359 7.386261 6.153498 14.141194 12.2911862 20.2648 2.0881851 2.083394 4.5559341 3.914218 7.4032471 5.492472 2.8474426 1.578255 6.4541427 2.872392 10.8201005 3.882413l11.1048706-11.268674c-4.4291968-.631327-8.1624399-1.641412-11.1997292-3.030255-3.0371598-1.388844-5.6314518-3.188056-7.7828759-5.397638-4.2394796-4.2297522-7.0710476-8.8856475-8.4947041-13.9676857-1.4237861-5.0819089-1.4395959-10.148109-.0474293-15.1986002 1.392037-5.0503619 4.1761109-9.658872 8.3522218-13.8255305l24.2977966-24.2420475c4.176241-4.2297524 8.811224-7.0390502 13.904949-8.4278932 5.093596-1.3888431 10.187256-1.3888431 15.280981 0 5.093726 1.388843 9.760263 4.1981408 13.999613 8.4278932 4.23948 4.2928464 7.071113 8.9802887 8.494899 14.0623269 1.423656 5.0819089 1.423656 10.1481089 0 15.1986001-1.423786 5.050362-4.223735 9.6588721-8.399846 13.8255306l-12.813297 12.7838983c1.20219 2.7776861 1.961448 5.6501425 2.277773 8.617369.316454 2.967097.316454 5.776395 0 8.427893l20.786084-20.7383925c6.07445-6.0605118 10.139892-12.7681248 12.196328-20.1228387 2.056436-7.354714 2.056436-14.7093633 0-22.063948-2.056436-7.354714-6.153498-14.0938739-12.291186-20.2174797-6.137818-6.1868291-12.892476-10.290329-20.263974-12.3104996-7.371627-2.0201706-14.743255-2.0043971-22.114883.0473205z"/></svg>

<?xml version="1.0" encoding="UTF-8"?>
<svg width="184px" height="184px" viewBox="0 0 184 184" version="1.1" xmlns="http://www.w3.org/2000/svg" xmlns:xlink="http://www.w3.org/1999/xlink">
    <title>link-box</title>
    <g id="HTML-Link" stroke="none" stroke-width="1" fill="none" fill-rule="evenodd">
        <path d="M147,0 C167.434536,-3.75376332e-15 184,16.5654643 184,37 L184,147 C184,167.434536 167.434536,184 147,184 L37,184 C16.5654643,184 2.50250888e-15,167.434536 0,147 L0,37 C-2.50250888e-15,16.5654643 16.5654643,3.75376332e-15 37,0 L147,0 Z M95.5236568,60.9458521 L84.3239275,72.3093604 C88.816493,72.9406879 92.5813556,73.9507732 95.6185154,75.3396163 C98.6558047,76.7284593 101.250097,78.5276718 103.401391,80.7372536 C107.640871,84.967006 110.472504,89.6228367 111.89629,94.7047456 C113.319946,99.7867838 113.335756,104.852984 111.943719,109.903346 C110.551682,114.953837 107.767543,119.562347 103.591303,123.728876 L79.2935061,147.971021 C75.0540265,152.200747 70.4032986,155.010045 65.3413224,156.398914 C60.2792167,157.787783 55.2013659,157.787783 50.1077702,156.398914 C45.0140449,155.010045 40.3474425,152.200747 36.1079629,147.971021 C31.8684833,143.67811 29.0369153,138.9907 27.6132588,133.908791 C26.1896023,128.826753 26.1737925,123.760553 27.5658295,118.710191 C28.9578664,113.659699 31.7736247,109.051189 36.0131043,104.88466 L48.8264016,92.1007618 C47.6240818,89.3229464 46.8647595,86.4504901 46.5484346,83.4833927 C46.2321096,80.5162954 46.2321096,77.7069977 46.5484346,75.0554995 L25.7623498,95.7936984 C19.6246616,101.85434 15.5434157,108.561952 13.5186123,115.916537 C11.4937959,123.271251 11.4937959,130.625965 13.5186123,137.980679 C15.5434157,145.335341 19.6563459,152.074488 25.8574028,158.19812 C31.995091,164.321765 38.7497489,168.409459 46.1213765,170.461202 C53.4928744,172.512933 60.8644372,172.512933 68.2360648,170.461202 C75.6076923,168.409459 82.3307307,164.353331 88.4051799,158.292819 L113.841863,132.819644 C119.916312,126.759132 123.981819,120.067357 126.038385,112.74432 C128.094821,105.421153 128.094821,98.0664388 126.038385,90.6801779 C123.981819,83.2939169 119.884693,76.5389835 113.747004,70.4153777 C111.658949,68.3321131 109.17539,66.5013537 106.296328,64.9230994 C103.417266,63.3448451 99.8263754,62.019096 95.5236568,60.9458521 Z M115.78763,13.55071 C108.416003,15.6024276 101.692965,19.6585423 95.6185154,25.7190542 L70.1818323,51.1922098 C64.1073831,57.2527216 60.0419406,63.9445611 57.9855047,71.2677281 C55.9290687,78.5907658 55.9290687,85.9454151 57.9855047,93.331676 C60.0419406,100.717937 64.1390027,107.47287 70.2766909,113.596476 C72.364876,115.67987 74.832625,117.510694 77.679938,119.088948 C80.5273806,120.667203 84.1340807,121.96134 88.5000385,122.971361 L99.6049091,111.702687 C95.1757123,111.07136 91.4424692,110.061275 88.4051799,108.672432 C85.3680201,107.283588 82.7737281,105.484376 80.622304,103.274794 C76.3828244,99.0450418 73.5512564,94.3891465 72.1275999,89.3071083 C70.7038138,84.2251994 70.688004,79.1589993 72.0801706,74.1085081 C73.4722076,69.0581462 76.2562815,64.4496361 80.4323924,60.2829776 L104.730189,36.0409301 C108.90643,31.8111777 113.541413,29.0018799 118.635138,27.6130369 C123.728734,26.2241938 128.822394,26.2241938 133.916119,27.6130369 C139.009845,29.0018799 143.676382,31.8111777 147.915732,36.0409301 C152.155212,40.3337765 154.986845,45.0212188 156.410631,50.103257 C157.834287,55.1851659 157.834287,60.2513659 156.410631,65.3018571 C154.986845,70.3522191 152.186896,74.9607292 148.010785,79.1273877 L135.197488,91.911286 C136.399678,94.6889721 137.158936,97.5614285 137.475261,100.528655 C137.791715,103.495752 137.791715,106.30505 137.475261,108.956548 L158.261345,88.2181555 C164.335795,82.1576437 168.401237,75.4500307 170.457673,68.0953168 C172.514109,60.7406028 172.514109,53.3859535 170.457673,46.0313688 C168.401237,38.6766548 164.304175,31.9374949 158.166487,25.8138891 C152.028669,19.62706 145.274011,15.5235601 137.902513,13.5033895 C130.530886,11.4832189 123.159258,11.4989924 115.78763,13.55071 Z" id="Combined-Shape" fill="#000000" fill-rule="nonzero"></path>
    </g>
</svg>
